X:3
T:Among the green hay
%%VWML:SBG-1-2-770-0
F:http://www.vwml.org/record/SBG/1/2/770
Z:Original Sibelius transcriptions by M. & S. Graebe
M:6/8
I:linebreak $
K:F
V:1 treble nm="P1"
V:1
 C | F G A G F E | F G A C2 F/E/ | D C B, A, B, C | D/E/ F D DC E/ F/ |$ G G G G c B | %6
 A F D B2 G/F/ | E C C D B, B, | C D E F2 z |] %9

